X: 124
T: the Fidlers Wish
B: 204 Favourite Country Dances
N: Published by Straight & Skillern, London ca.1775
F: http://imslp.org/wiki/204_Favourite_Country_Dances_(Various) p.62 #124
Z: 2014 John Chambers <jc:trillian.mit.edu>
N: Notes marked with "?" are guesses due to only partial legibility.
M: C|
L: 1/8
K: D
% - - - - - - - - - - - - - - - - - - - - - - - - -
|:\
d>ef>d B/B/B e2 | d>ef>d g>ef>d |\
g>ef>d B/B/B e2 | d>BA>G D/D/D D2 :|
|:\
D>FA>d A>FE>A | d>ef>"?"d "?"e>"?"dB>e |\
d>BA>G F>Ad>g | f>de>f d/d/d d2 :|
% - - - - - - - - - - - - - - - - - - - - - - - - -
%%begintext align
%% Cast off 2 Cu. cast up again cross over
%% 2 Cu. lead up to the top and cast off set
%% corners and turn lead outsides and turn
%%endtext

%%sep 1 1 500
%%sep 1 1 500
